X:1
T:Isfahan
T:Isfahan
C:Duke Ellington & Billy Strayhorn
Z:All Rights Reserved
L:1/8
M:4/4
K:Db
V:1 treble nm="Piano" snm="Pno."
%%MIDI program 66
%%MIDI control 7 100
%%MIDI control 10 64
V:1
 z4 z c (3AFD |"Dbmaj7" C6 D=A- |"Bbmaj7" A4"Bb+7" B4 |"Eb9" F8- | F4 z A (3FD=A, |"Ab" ^G,6 =A,2 | %6
 =E4"Ab7b9" F4 |"Dbmaj7" _E8- | E2 D2 F2 A2 ||"Gdim7" B2 c2"C7b9" B =G2 A- |"Fm7" A8 | %11
"Adim7" c2 =d2"D7b9" c =A2 B- |"Gm6" B8 |"Gdim7" d2 e2 d B2 d- |"C7#5b9" d4 e4 | %15
"Fmaj7""Emaj7" c8- |"Ebmaj7" c4"Dmaj7" z c (3AFD ||"Dbmaj7" C6 D=A- |"Bbmaj7" A4"Bb+7" B4 | %19
"Eb9" F8- | F4 z A (3FD=A, |"Amaj7" ^G,6 =A,2 | =E4"Ab7b9" F4 |"Db7#11" =G8- | G6 A2 | %25
"Gbmaj7" =A2 B2 A2 B2 |"C7#9" e4 d3 c |"F7#11" _c4 A3 F |"Bb7" z4 z c (3AFD |"Eb9" C6 D=A- | %30
"Ab7b9" A4"Ab+7" B4 |1"Dbmaj7" B8- |"Ebm7" B4"Ab7" z4 :|2"Dbmaj7" B8- | B4 z4 || %35

